X:1
T:Title
%%score { 1 | 2 }
L:1/8
Q:1/4=124
M:3/4
K:Eb
V:1 treble nm="Grand Piano"
V:2 bass 
V:1
 [GB]3 [_G=A] [=GB]2 | [Ac]2 [GB]2 [B,FA]2 | [B,EG]2 [B,FA]2 [A,DF]2 | [G,E]4 z2 | %4
w: J.~M.~Stillman * *||||
 [DF]3 [_D=E] [=DF]2 | [Fd]2 [Ec]2 [DB]2 | c2 G2 =A2 | [DB]4 z2 | [Fd]2 [DF]2 [EG]2 | [FA]4 [Dc]2 | %10
w: ||||||
 B2 E2 G2 | [GB]4 z2 | [Ge]3 [Bd] [Ac]2 | [GB]3 [FA] G2 | c2 B2 G2 | [DF]4 z2 | [Fd]2 [DF]2 [EG]2 | %17
w: |||||||
 [FA]4 [Dc]2 | [EB]2 [G,E]2 [B,EG]2 | [EGB]4 z2 | [EAe]3 [EAd] [EAc]2 | [EGB]3 [B,FA] [B,EG]2 | %22
w: |||||
 [CFA]2 [B,EG]2 [A,DF]2 | [G,E]4 z2 |] %24
w: ||
V:2
 [E,E]3 [E,E] [E,E]2 | [E,E]2 [E,E]2 A,,2 | B,,2 B,,2 B,,2 | E,4 z2 | [B,,B,]3 [B,,B,] [B,,B,]2 | %5
 [B,,B,]2 [B,,B,]2 [B,,B,]2 | [E,G,E]2 [E,G,E]2 [F,E]2 | [B,,F,]4 z2 | [B,,B,]2 [B,,B,]2 [B,,B,]2 | %9
 [B,,B,]4 [B,,A,]2 | [E,G,E]2 [E,G,]2 [E,B,E]2 | [E,E]4 z2 | [E,E]3 [E,E] [E,E]2 | %13
 [E,E]3 [E,B,] [E,B,E]2 | [E,A,E]2 [E,G,E]2 [E,B,E]2 | [B,,B,]4 z2 | [B,,B,]2 [B,,B,]2 [B,,B,]2 | %17
 [B,,B,]4 [B,,A,]2 | [E,G,]2 E,2 E,2 | E,4 z2 | C,3 B,, A,,2 | E,3 E, E,2 | A,,2 B,,2 B,,2 | %23
 E,4 z2 |] %24

